X: 23043
T: Last Rose Of Summer, The
R: waltz
M: 3/4
K: Dmajor
D>E|"D"F2 "G"dc B>A|"D"AF3 D>E|F2 AF "A"E>D|"D"D4 D>E|
F2 "G"dc B>A|"D"AF3 D>E|F2 AF "A"E>D|"D"D4 A>F|
"G"[B2d2] dc B>A|"D"A2 F2 A>F|"Bm"[F2d2] dc B^A|BcHd2 D>E|
"D"F2 "G"dc B>A|"D"AF3 D>E|F2 AF "A"E>D|"D"D4||

